X:1
T:Sonny's Dream
M:4/4
L:1/4
K:G
 D E| D2 G, A,| B,2 D E| D2 G, A,| B,3 D| B/2 B3/2- B A| G2 D3/2 D/2|\
 E2 D C| D4| A2 A B| A2 D D| A2 A B| A2 G G| G2 G E| C2 D D| D D C B,|\
 A,2||
